X:896
T:Islay Rant
R:reel
C:Charlie McKerron, Scotland
Z:id:hn-reel-896
M:C|
L:1/8
K:Ador
EAAB cBcd | e2ed eA~A2 | g2gf gBBA | GABG cABG |
~A3B cBcd | e2ed eAAf | g2gf gBBA |1 GABG A3G :|2 GABG A3g ||
|: a2ab aged | eA~A2 eAfA | g2gf gBBA | GABG cABG |
^cA~A2 cAdA | eA~A2 eAfA | g2gf gBBA |1 GABG A3g :|2 GABG A3G ||

